!!!OTL: Der Morgenstern
!!!ARE: Europa, Mitteleuropa, Deutschland
!!!SCT: A0109
!!!YEM: Copyright 1995, estate of Helmut Schaffrath.
**kern
*ICvox
*Ivox
!! Mixed meters:  3/2; 6/2
*M6/2
*k[b-]
*F:
{2f
=1
1f
2f
1f
2d
=2
1c
2g
1g}
{2g
=3
1a
1b-
2g
2g
=4
*M3/2
1f}
{2a
=5
*M6/2
1b-
2b-
1b-
2a
=6
1.g
1g}
{2g
=7
1a
2cc
2cc
2b-
2a
=8
*M3/2
1g}
{2g
=9
*M6/2
1a
1b-
2g
2g
=10
1f}
==
!!!AGN: Romanze, Ballade, Lied
!! Frankf. Gsgb. von Gesius "O Christe Morgensterne" und bei M.
!!    Praetorius, Mus. Sion. VII. 1609 No. 69.
!!!ONB: ESAC (Essen Associative Code) Database: ALTDEU
!!!AMT: irregular
!!!AIN: vox
!!!EED: Helmut Schaffrath
!!!EEV: 1.0
*-
